Newaita-dark/actions/24/view-left-close.svg

<svg height="24" viewBox="0 0 24 24" width="24" xmlns="http://www.w3.org/2000/svg"><path d="m8.433594 17.550781h-5.953125c-.273438 0-.496094.222657-.496094.496094v.992187c0 .277344.222656.496094.496094.496094h5.953125c.273437 0 .496094-.21875.496094-.496094v-.992187c0-.273437-.222657-.496094-.496094-.496094zm0 0" fill="#f44336"/><path d="m19.84375 2.171875c1.101562 0 1.988281.886719 1.988281 1.984375v15.875c0 1.101562-.886719 1.988281-1.988281 1.988281h-8.929688v-1.988281h3.96875v-15.875h-9.921874c-.550782 0-.992188.441406-.992188.992188v7.9375h-1.984375v-8.929688c0-1.097656.886719-1.984375 1.984375-1.984375zm-.992188 1.984375h-2.976562v15.875h2.976562c.550782 0 .992188-.441406.992188-.992188v-13.890624c0-.550782-.441406-.992188-.992188-.992188zm0 0" fill="#e0e0e0"/></svg>

<?xml version="1.0" encoding="UTF-8"?>
<svg xmlns="http://www.w3.org/2000/svg" xmlns:xlink="http://www.w3.org/1999/xlink" width="24px" height="24px" viewBox="0 0 24 24" version="1.1">
<g id="surface1">
<path style=" stroke:none;fill-rule:nonzero;fill:rgb(95.686275%,26.274511%,21.176471%);fill-opacity:1;" d="M 8.433594 17.550781 L 2.480469 17.550781 C 2.207031 17.550781 1.984375 17.773438 1.984375 18.046875 L 1.984375 19.039062 C 1.984375 19.316406 2.207031 19.535156 2.480469 19.535156 L 8.433594 19.535156 C 8.707031 19.535156 8.929688 19.316406 8.929688 19.039062 L 8.929688 18.046875 C 8.929688 17.773438 8.707031 17.550781 8.433594 17.550781 Z M 8.433594 17.550781 "/>
<path style=" stroke:none;fill-rule:nonzero;fill:rgb(87.843138%,87.843138%,87.843138%);fill-opacity:1;" d="M 19.84375 2.171875 C 20.945312 2.171875 21.832031 3.058594 21.832031 4.15625 L 21.832031 20.03125 C 21.832031 21.132812 20.945312 22.019531 19.84375 22.019531 L 10.914062 22.019531 L 10.914062 20.03125 L 14.882812 20.03125 L 14.882812 4.15625 L 4.960938 4.15625 C 4.410156 4.15625 3.96875 4.597656 3.96875 5.148438 L 3.96875 13.085938 L 1.984375 13.085938 L 1.984375 4.15625 C 1.984375 3.058594 2.871094 2.171875 3.96875 2.171875 Z M 18.851562 4.15625 L 15.875 4.15625 L 15.875 20.03125 L 18.851562 20.03125 C 19.402344 20.03125 19.84375 19.589844 19.84375 19.039062 L 19.84375 5.148438 C 19.84375 4.597656 19.402344 4.15625 18.851562 4.15625 Z M 18.851562 4.15625 "/>
</g>
</svg>
